;FLAVOR:Marlin
;TIME:2099
;Filament used: 1.229m
;Layer height: 0.1
;Generated with Cura_SteamEngine 1.2.0
M190 S35
M104 S220
M109 S220
G28
G1 Z50.00 F400
G92 E0
G1 F200 E3
G92 E0
M132 X Y Z A
M907 X100 Y100 Z50 A100
;LAYER_COUNT:278
;LAYER:0
M107
G0 F3600 X9.991 Y-13.79 Z0.3
;TYPE:SKIRT
G1 F1500 X10.609 Y-13.75 E0.0309
G1 X11.217 Y-13.631 E0.06181
G1 X11.804 Y-13.434 E0.0927
G1 X12.362 Y-13.164 E0.12362
G1 X12.879 Y-12.824 E0.15449
G1 X13.349 Y-12.42 E0.18541
G1 X13.763 Y-11.959 E0.21633
G1 X14.113 Y-11.449 E0.24719
G1 X14.396 Y-10.897 E0.27813
G1 X14.605 Y-10.314 E0.30903
G1 X14.737 Y-9.709 E0.33993
G1 X14.791 Y-8.99 E0.3759
G1 X14.791 Y8.991 E1.27297
G1 X14.751 Y9.609 E1.30387
G1 X14.632 Y10.217 E1.33478
G1 X14.435 Y10.804 E1.36567
G1 X14.165 Y11.361 E1.39655
G1 X13.825 Y11.879 E1.42746
G1 X13.421 Y12.349 E1.45838
G1 X12.96 Y12.762 E1.48926
G1 X12.45 Y13.113 E1.52015
G1 X11.899 Y13.396 E1.55106
G1 X11.316 Y13.605 E1.58195
G1 X10.71 Y13.737 E1.6129
G1 X9.991 Y13.791 E1.64887
G1 X-9.991 Y13.791 E2.64577
G1 X-10.609 Y13.751 E2.67667
G1 X-11.217 Y13.632 E2.70758
G1 X-11.804 Y13.435 E2.73847
G1 X-12.361 Y13.165 E2.76935
G1 X-12.879 Y12.825 E2.80026
G1 X-13.349 Y12.421 E2.83119
G1 X-13.762 Y11.96 E2.86206
G1 X-14.113 Y11.45 E2.89295
G1 X-14.396 Y10.899 E2.92386
G1 X-14.605 Y10.316 E2.95475
G1 X-14.737 Y9.71 E2.9857
G1 X-14.791 Y8.991 E3.02167
G1 X-14.791 Y-8.991 E3.91879
G1 X-14.751 Y-9.609 E3.94969
G1 X-14.632 Y-10.217 E3.9806
G1 X-14.435 Y-10.804 E4.01149
G1 X-14.165 Y-11.361 E4.04237
G1 X-13.825 Y-11.879 E4.07328
G1 X-13.421 Y-12.349 E4.1042
G1 X-12.96 Y-12.762 E4.13508
G1 X-12.45 Y-13.113 E4.16597
G1 X-11.899 Y-13.396 E4.19688
G1 X-11.316 Y-13.605 E4.22777
G1 X-10.71 Y-13.737 E4.25872
G1 X-9.991 Y-13.791 E4.29469
G1 X9.991 Y-13.79 E5.29159
G0 F3600 X9.991 Y-13.39
G1 F1500 X10.583 Y-13.35 E5.3212
G1 X11.164 Y-13.231 E5.35078
G1 X11.723 Y-13.035 E5.38034
G1 X12.251 Y-12.765 E5.40992
G1 X12.738 Y-12.427 E5.4395
G1 X13.176 Y-12.026 E5.46913
G1 X13.555 Y-11.57 E5.49871
G1 X13.869 Y-11.068 E5.52825
G1 X14.114 Y-10.527 E5.55788
G1 X14.283 Y-9.959 E5.58744
G1 X14.374 Y-9.373 E5.61703
G1 X14.391 Y-8.99 E5.63616
G1 X14.391 Y8.991 E6.53323
G1 X14.351 Y9.583 E6.56283
G1 X14.232 Y10.163 E6.59237
G1 X14.036 Y10.723 E6.62197
G1 X13.766 Y11.251 E6.65156
G1 X13.428 Y11.738 E6.68113
G1 X13.027 Y12.175 E6.71072
G1 X12.572 Y12.555 E6.7403
G1 X12.069 Y12.869 E6.76988
G1 X11.529 Y13.114 E6.79947
G1 X10.96 Y13.283 E6.82908
G1 X10.375 Y13.374 E6.85862
G1 X9.991 Y13.391 E6.87779
G1 X-9.991 Y13.391 E7.8747
G1 X-10.583 Y13.351 E7.9043
G1 X-11.163 Y13.232 E7.93384
G1 X-11.723 Y13.036 E7.96344
G1 X-12.251 Y12.766 E7.99303
G1 X-12.738 Y12.428 E8.0226
G1 X-13.175 Y12.027 E8.05219
G1 X-13.555 Y11.572 E8.08177
G1 X-13.869 Y11.069 E8.11135
G1 X-14.114 Y10.529 E8.14094
G1 X-14.283 Y9.96 E8.17055
G1 X-14.374 Y9.375 E8.20009
G1 X-14.391 Y8.991 E8.21926
G1 X-14.391 Y-8.991 E9.11639
G1 X-14.351 Y-9.583 E9.14599
G1 X-14.232 Y-10.163 E9.17553
G1 X-14.036 Y-10.723 E9.20513
G1 X-13.766 Y-11.251 E9.23472
G1 X-13.428 Y-11.738 E9.26429
G1 X-13.027 Y-12.175 E9.29388
G1 X-12.572 Y-12.555 E9.32346
G1 X-12.069 Y-12.869 E9.35304
G1 X-11.529 Y-13.114 E9.38262
G1 X-10.96 Y-13.283 E9.41224
G1 X-10.375 Y-13.374 E9.44177
G1 X-9.991 Y-13.391 E9.46095
G1 X9.991 Y-13.39 E10.45786
G0 F3600 X9.991 Y-12.99
G1 F1500 X10.555 Y-12.95 E10.48606
G1 X11.108 Y-12.831 E10.51428
G1 X11.638 Y-12.635 E10.54248
G1 X12.136 Y-12.367 E10.57069
G1 X12.59 Y-12.03 E10.5989
G1 X12.993 Y-11.634 E10.62709
G1 X13.336 Y-11.184 E10.65532
G1 X13.611 Y-10.691 E10.68348
G1 X13.815 Y-10.163 E10.71172
G1 X13.942 Y-9.612 E10.73993
G1 X13.991 Y-8.99 E10.77106
G1 X13.991 Y8.991 E11.66813
G1 X13.951 Y9.555 E11.69634
G1 X13.832 Y10.108 E11.72456
G1 X13.636 Y10.638 E11.75276
G1 X13.368 Y11.135 E11.78093
G1 X13.032 Y11.59 E11.80914
G1 X12.635 Y11.993 E11.83737
G1 X12.185 Y12.335 E11.86557
G1 X11.692 Y12.611 E11.89375
G1 X11.164 Y12.815 E11.92199
G1 X10.614 Y12.942 E11.95016
G1 X9.991 Y12.991 E11.98133
G1 X-9.991 Y12.991 E12.97824
G1 X-10.555 Y12.951 E13.00645
G1 X-11.108 Y12.832 E13.03467
G1 X-11.638 Y12.636 E13.06286
G1 X-12.135 Y12.368 E13.09103
G1 X-12.59 Y12.032 E13.11925
G1 X-12.993 Y11.635 E13.14747
G1 X-13.335 Y11.185 E13.17567
G1 X-13.611 Y10.692 E13.20386
G1 X-13.815 Y10.164 E13.2321
G1 X-13.942 Y9.614 E13.26026
G1 X-13.991 Y8.991 E13.29144
G1 X-13.991 Y-8.991 E14.18856
G1 X-13.951 Y-9.555 E14.21677
G1 X-13.832 Y-10.108 E14.24499
G1 X-13.636 Y-10.638 E14.27319
G1 X-13.368 Y-11.135 E14.30136
G1 X-13.032 Y-11.59 E14.32957
G1 X-12.635 Y-11.993 E14.3578
G1 X-12.185 Y-12.335 E14.386
G1 X-11.692 Y-12.611 E14.41418
G1 X-11.164 Y-12.815 E14.44242
G1 X-10.614 Y-12.942 E14.47059
G1 X-9.991 Y-12.991 E14.50176
G1 X9.991 Y-12.99 E15.49867
G0 F3600 X9.991 Y-12.59
G1 F1500 X10.526 Y-12.55 E15.52544
G1 X11.049 Y-12.431 E15.55219
G1 X11.548 Y-12.236 E15.57892
G1 X12.013 Y-11.968 E15.6057
G1 X12.433 Y-11.635 E15.63244
G1 X12.799 Y-11.243 E15.6592
G1 X13.103 Y-10.801 E15.68596
G1 X13.337 Y-10.318 E15.71274
G1 X13.497 Y-9.806 E15.7395
G1 X13.58 Y-9.277 E15.76621
G1 X13.591 Y-8.99 E15.78054
G1 X13.591 Y8.991 E16.67762
G1 X13.551 Y9.526 E16.70438
G1 X13.432 Y10.049 E16.73114
G1 X13.237 Y10.548 E16.75787
G1 X12.969 Y11.013 E16.78465
G1 X12.636 Y11.433 E16.81139
G1 X12.244 Y11.799 E16.83814
G1 X11.802 Y12.102 E16.86488
G1 X11.319 Y12.337 E16.89168
G1 X10.808 Y12.497 E16.91839
G1 X10.278 Y12.58 E16.94516
G1 X9.991 Y12.591 E16.95949
G1 X-9.991 Y12.591 E17.95639
G1 X-10.526 Y12.551 E17.98316
G1 X-11.049 Y12.432 E18.00992
G1 X-11.548 Y12.237 E18.03665
G1 X-12.013 Y11.969 E18.06342
G1 X-12.433 Y11.636 E18.09016
G1 X-12.799 Y11.244 E18.11692
G1 X-13.102 Y10.802 E18.14365
G1 X-13.337 Y10.319 E18.17045
G1 X-13.497 Y9.808 E18.19717
G1 X-13.58 Y9.278 E18.22393
G1 X-13.591 Y8.991 E18.23826
G1 X-13.591 Y-8.991 E19.13538
G1 X-13.551 Y-9.526 E19.16215
G1 X-13.432 Y-10.049 E19.18891
G1 X-13.237 Y-10.548 E19.21564
G1 X-12.969 Y-11.013 E19.24241
G1 X-12.636 Y-11.433 E19.26916
G1 X-12.244 Y-11.799 E19.29591
G1 X-11.802 Y-12.102 E19.32265
G1 X-11.319 Y-12.337 E19.34944
G1 X-10.808 Y-12.497 E19.37616
G1 X-10.278 Y-12.58 E19.40292
G1 X-9.991 Y-12.591 E19.41725
G1 X9.991 Y-12.59 E20.41416
G0 F3600 X9.991 Y-12.19
G1 F1500 X10.495 Y-12.15 E20.43938
G1 X10.987 Y-12.031 E20.46464
G1 X11.453 Y-11.836 E20.48984
G1 X11.883 Y-11.571 E20.51504
G1 X12.266 Y-11.24 E20.54029
G1 X12.592 Y-10.854 E20.5655
G1 X12.853 Y-10.421 E20.59072
G1 X13.043 Y-9.952 E20.61597
G1 X13.156 Y-9.46 E20.64115
G1 X13.191 Y-8.99 E20.66467
G1 X13.191 Y8.991 E21.56174
G1 X13.151 Y9.495 E21.58697
G1 X13.032 Y9.986 E21.61217
G1 X12.838 Y10.453 E21.6374
G1 X12.572 Y10.883 E21.66263
G1 X12.242 Y11.266 E21.68785
G1 X11.855 Y11.592 E21.71309
G1 X11.422 Y11.853 E21.73832
G1 X10.954 Y12.043 E21.76352
G1 X10.461 Y12.156 E21.78875
G1 X9.991 Y12.191 E21.81226
G1 X-9.991 Y12.191 E22.80917
G1 X-10.495 Y12.151 E22.83439
G1 X-10.986 Y12.032 E22.8596
G1 X-11.453 Y11.838 E22.88483
G1 X-11.883 Y11.572 E22.91005
G1 X-12.266 Y11.242 E22.93528
G1 X-12.592 Y10.855 E22.96052
G1 X-12.853 Y10.422 E22.98574
G1 X-13.043 Y9.954 E23.01094
G1 X-13.156 Y9.461 E23.03618
G1 X-13.191 Y8.991 E23.05969
G1 X-13.191 Y-8.991 E23.95682
G1 X-13.151 Y-9.495 E23.98204
G1 X-13.032 Y-9.986 E24.00725
G1 X-12.838 Y-10.453 E24.03247
G1 X-12.572 Y-10.883 E24.0577
G1 X-12.242 Y-11.266 E24.08292
G1 X-11.855 Y-11.592 E24.10817
G1 X-11.422 Y-11.853 E24.13339
G1 X-10.954 Y-12.043 E24.15859
G1 X-10.461 Y-12.156 E24.18382
G1 X-9.991 Y-12.191 E24.20734
G1 X9.991 Y-12.19 E25.20424
G1 F1500 E23.20424
G0 F3600 X9.386 Y-9.665
G0 X9.386 Y-8.386
G0 X9 Y-8
;TYPE:WALL-INNER
G1 F1500 E25.28739
G1 X9 Y8 E26.08564
G1 X-9 Y8 E26.98366
G1 X-9 Y-8 E27.7819
G1 X9 Y-8 E28.67993
G0 F3600 X-1.964 Y-1.478
G1 F1500 X-2.522 Y-2.036 E28.7193
G1 X-3.223 Y-2.392 E28.75852
G1 X-4 Y-2.516 E28.79778
G1 X-4.777 Y-2.392 E28.83703
G1 X-5.478 Y-2.036 E28.87626
G1 X-6.036 Y-1.478 E28.91563
G1 X-6.392 Y-.776 E28.9549
G1 X-6.514 Y0.00 E28.99409
G1 X-6.392 Y0.776 E29.03328
G1 X-6.036 Y1.478 E29.07255
G1 X-5.478 Y2.036 E29.11192
G1 X-4.776 Y2.392 E29.15118
G1 X-4 Y2.514 E29.19037
G1 X-3.224 Y2.392 E29.22956
G1 X-2.522 Y2.036 E29.26883
G1 X-1.964 Y1.478 E29.3082
G1 X-1.608 Y0.777 E29.34743
G1 X-1.484 Y0.00 E29.38668
G1 X-1.608 Y-.777 E29.42594
G1 X-1.964 Y-1.478 E29.46516
G0 F3600 X-2.292 Y-1.24
G1 F1500 X-2.76 Y-1.708 E29.49818
G1 X-3.348 Y-2.007 E29.53109
G1 X-4 Y-2.111 E29.56403
G1 X-4.652 Y-2.007 E29.59697
G1 X-5.24 Y-1.708 E29.62988
G1 X-5.708 Y-1.24 E29.6629
G1 X-6.007 Y-.651 E29.69586
G1 X-6.109 Y0.00 E29.72873
G1 X-6.007 Y0.651 E29.76161
G1 X-5.708 Y1.24 E29.79456
G1 X-5.24 Y1.708 E29.82758
G1 X-4.651 Y2.007 E29.86054
G1 X-4 Y2.109 E29.89341
G1 X-3.349 Y2.007 E29.92629
G1 X-2.76 Y1.708 E29.95924
G1 X-2.292 Y1.24 E29.99226
G1 X-1.993 Y0.652 E30.02517
G1 X-1.889 Y0.00 E30.05811
G1 X-1.993 Y-.652 E30.09105
G1 X-2.292 Y-1.24 E30.12396
G0 F3600 X-2.212 Y-1.298
G0 X-9.33 Y-8.33
G0 X-9.4 Y-8.4
G1 F1500 X9.4 Y-8.4 E31.0619
G1 X9.4 Y8.4 E31.90005
G1 X-9.4 Y8.4 E32.83799
G1 X-9.4 Y-8.4 E33.67614
G0 F3600 X-9.8 Y-8.8
;TYPE:WALL-OUTER
G1 F1500 X9.8 Y-8.8 E34.65399
G1 X9.8 Y8.8 E35.53206
G1 X-9.8 Y8.8 E36.50991
G1 X-9.8 Y-8.8 E37.38797
G0 F3600 X-9.6 Y-8.8
G0 X-9.33 Y-8.33
G0 X-5.354 Y-1.734
G0 X-5.002 Y-1.38
G1 F1500 X-5.38 Y-1.002 E37.41464
G1 X-5.622 Y-.526 E37.44129
G1 X-5.704 Y0.00 E37.46784
G1 X-5.622 Y0.526 E37.4944
G1 X-5.38 Y1.002 E37.52104
G1 X-5.002 Y1.38 E37.54771
G1 X-4.526 Y1.622 E37.57435
G1 X-4 Y1.704 E37.60091
G1 X-3.474 Y1.622 E37.62747
G1 X-2.998 Y1.38 E37.65411
G1 X-2.62 Y1.002 E37.68078
G1 X-2.378 Y0.527 E37.70738
G1 X-2.294 Y0.00 E37.734
G1 X-2.378 Y-.527 E37.76063
G1 X-2.62 Y-1.002 E37.78722
G1 X-2.998 Y-1.38 E37.81389
G1 X-3.473 Y-1.622 E37.84049
G1 X-4 Y-1.706 E37.86711
G1 X-4.527 Y-1.622 E37.89374
G1 X-5.002 Y-1.38 E37.92033
G0 F3600 X-5.143 Y-1.239
G0 X-5.496 Y-1.592
G0 X-5.74 Y-1.263
G0 X-6.045 Y-.663
G0 X-8.8 Y7.8
G0 X-8.839 Y7.565
;TYPE:SKIN
G1 F1500 X-8.565 Y7.839 E37.93967
G0 F3600 X-7.999 Y7.839
G1 F1500 X-8.839 Y6.999 E37.99893
G1 X-8.909 Y6.929
G0 F3600 X-8.839 Y6.433
G1 F1500 X-7.433 Y7.839 E38.09813
G1 X-7.363 Y7.909
G0 F3600 X-6.868 Y7.839
G1 F1500 X-8.839 Y5.868 E38.2372
G1 X-8.909 Y5.798
G0 F3600 X-8.839 Y5.302
G1 F1500 X-6.302 Y7.839 E38.4162
G1 X-6.232 Y7.909
G0 F3600 X-5.736 Y7.839
G1 F1500 X-8.839 Y4.736 E38.63513
G1 X-8.909 Y4.666
G0 F3600 X-8.839 Y4.171
G1 F1500 X-5.171 Y7.839 E38.89393
G1 X-5.101 Y7.909
G0 F3600 X-4.605 Y7.839
G1 F1500 X-8.839 Y3.605 E39.19266
G1 X-8.909 Y3.535
G0 F3600 X-8.839 Y3.039
G1 F1500 X-4.039 Y7.839 E39.53133
G1 X-3.969 Y7.909
G0 F3600 X-3.474 Y7.839
G1 F1500 X-8.839 Y2.474 E39.90986
G1 X-8.909 Y2.404
G0 F3600 X-8.839 Y1.908
G1 F1500 X-2.908 Y7.839 E40.32832
G1 X-2.838 Y7.909
G0 F3600 X-2.342 Y7.839
G1 F1500 X-8.839 Y1.342 E40.78672
G1 X-8.909 Y1.272
G0 F3600 X-8.839 Y0.777
G1 F1500 X-1.776 Y7.839 E41.28502
G1 X-1.706 Y7.909
G0 F3600 X-1.211 Y7.839
G1 F1500 X-8.839 Y0.211 E41.82321
G1 X-8.909 Y0.141
G0 F3600 X-8.839 Y-.354
G1 F1500 X-.645 Y7.839 E42.40131
G1 X-.575 Y7.909
G0 F3600 X-0.079 Y7.839
G1 F1500 X-8.839 Y-.919 E43.0193
G1 X-8.909 Y-.989
G0 F3600 X-8.839 Y-1.485
G1 F1500 X-6.547 Y0.806 E43.18098
G1 X-6.477 Y0.876
G0 F3600 X-6.652 Y0.135
G1 F1500 X-8.839 Y-2.051 E43.33525
G1 X-8.909 Y-2.121
G0 F3600 X-8.839 Y-2.617
G1 F1500 X-6.612 Y-.389 E43.49241
G1 X-6.542 Y-.319
G0 F3600 X-6.523 Y-.866
G1 F1500 X-8.839 Y-3.182 E43.65582
G1 X-8.909 Y-3.252
G0 F3600 X-8.839 Y-3.748
G1 F1500 X-6.333 Y-1.242 E43.83263
G1 X-6.263 Y-1.172
G0 F3600 X-6.132 Y-1.607
G1 F1500 X-8.839 Y-4.314 E44.02362
G1 X-8.909 Y-4.384
G0 F3600 X-8.839 Y-4.879
G1 F1500 X-5.849 Y-1.89 E44.23455
G1 X-5.779 Y-1.82
G0 F3600 X-5.564 Y-2.17
G1 F1500 X-8.839 Y-5.445 E44.46562
G1 X-8.909 Y-5.515
G0 F3600 X-8.839 Y-6.011
G1 F1500 X-5.19 Y-2.361 E44.72311
G1 X-5.12 Y-2.291
G0 F3600 X-4.811 Y-2.549
G1 F1500 X-8.839 Y-6.576 E45.00727
G1 X-8.909 Y-6.646
G0 F3600 X-8.839 Y-7.142
G1 F1500 X-4.323 Y-2.626 E45.3259
G1 X-4.253 Y-2.556
G0 F3600 X-3.774 Y-2.643
G1 F1500 X-8.839 Y-7.708 E45.68326
G1 X-8.909 Y-7.778
G0 F3600 X-8.405 Y-7.839
G1 F1500 X-3.05 Y-2.484 E46.06109
G1 X-2.98 Y-2.414
G0 F3600 X-1.515 Y-.949
G1 F1500 X7.274 Y7.839 E46.68116
G1 X7.344 Y7.909
G0 F3600 X7.839 Y7.839
G1 F1500 X-7.839 Y-7.839 E47.78733
G1 X-7.909 Y-7.909
G0 F3600 X-7.274 Y-7.839
G1 F1500 X8.405 Y7.839 E48.89353
G1 X8.475 Y7.909
G0 F3600 X8.839 Y7.708
G1 F1500 X-6.708 Y-7.839 E49.99046
G1 X-6.778 Y-7.909
G0 F3600 X-6.142 Y-7.839
G1 F1500 X8.839 Y7.142 E51.04745
G1 X8.909 Y7.212
G0 F3600 X8.839 Y6.576
G1 F1500 X-5.576 Y-7.839 E52.06451
G1 X-5.646 Y-7.909
G0 F3600 X-5.011 Y-7.839
G1 F1500 X8.839 Y6.011 E53.0417
G1 X8.909 Y6.081
G0 F3600 X8.839 Y5.445
G1 F1500 X-4.445 Y-7.839 E53.97896
G1 X-4.515 Y-7.909
G0 F3600 X-3.879 Y-7.839
G1 F1500 X8.839 Y4.879 E54.87628
G1 X8.909 Y4.949
G0 F3600 X8.839 Y4.314
G1 F1500 X-3.314 Y-7.839 E55.73374
G1 X-3.384 Y-7.909
G0 F3600 X-2.748 Y-7.839
G1 F1500 X8.839 Y3.748 E56.55126
G1 X8.909 Y3.818
G0 F3600 X8.839 Y3.182
G1 F1500 X-2.182 Y-7.839 E57.32886
G1 X-2.252 Y-7.909
G0 F3600 X-1.617 Y-7.839
G1 F1500 X8.839 Y2.617 E58.06658
G1 X8.909 Y2.687
G0 F3600 X8.839 Y2.051
G1 F1500 X-1.051 Y-7.839 E58.76438
G1 X-1.121 Y-7.909
G0 F3600 X-.485 Y-7.839
G1 F1500 X8.839 Y1.485 E59.42223
G1 X8.909 Y1.555
G0 F3600 X8.839 Y0.919
G1 F1500 X0.079 Y-7.839 E60.04023
G1 X0.009 Y-7.909
G0 F3600 X0.645 Y-7.839
G1 F1500 X8.839 Y0.354 E60.61832
G1 X8.909 Y0.424
G0 F3600 X8.839 Y-.211
G1 F1500 X1.211 Y-7.839 E61.15652
G1 X1.141 Y-7.909
G0 F3600 X1.776 Y-7.839
G1 F1500 X8.839 Y-.777 E61.65482
G1 X8.909 Y-.707
G0 F3600 X8.839 Y-1.342
G1 F1500 X2.342 Y-7.839 E62.11322
G1 X2.272 Y-7.909
G0 F3600 X2.908 Y-7.839
G1 F1500 X8.839 Y-1.908 E62.53168
G1 X8.909 Y-1.838
G0 F3600 X8.839 Y-2.474
G1 F1500 X3.474 Y-7.839 E62.91021
G1 X3.404 Y-7.909
G0 F3600 X4.039 Y-7.839
G1 F1500 X8.839 Y-3.039 E63.24888
G1 X8.909 Y-2.969
G0 F3600 X8.839 Y-3.605
G1 F1500 X4.605 Y-7.839 E63.54761
G1 X4.535 Y-7.909
G0 F3600 X5.171 Y-7.839
G1 F1500 X8.839 Y-4.171 E63.80641
G1 X8.909 Y-4.101
G0 F3600 X8.839 Y-4.736
G1 F1500 X5.736 Y-7.839 E64.02534
G1 X5.666 Y-7.909
G0 F3600 X6.302 Y-7.839
G1 F1500 X8.839 Y-5.302 E64.20434
G1 X8.909 Y-5.232
G0 F3600 X8.839 Y-5.868
G1 F1500 X6.868 Y-7.839 E64.3434
G1 X6.798 Y-7.909
G0 F3600 X7.433 Y-7.839
G1 F1500 X8.839 Y-6.433 E64.4426
G1 X8.909 Y-6.363
G0 F3600 X8.839 Y-6.999
G1 F1500 X7.999 Y-7.839 E64.50187
G1 X7.929 Y-7.909
G0 F3600 X8.565 Y-7.839
G1 F1500 X8.839 Y-7.565 E64.5212
G0 F3600 X-1.356 Y-.225
G1 F1500 X6.708 Y7.839 E65.09016
G1 X6.778 Y7.909
G0 F3600 X6.142 Y7.839
G1 F1500 X-1.373 Y0.323 E65.62042
G1 X-1.443 Y0.253
G0 F3600 X-1.45 Y0.811
G1 F1500 X5.576 Y7.839 E66.11621
G1 X5.646 Y7.909
G0 F3600 X5.011 Y7.839
G1 F1500 X-1.638 Y1.19 E66.58534
G1 X-1.708 Y1.12
G0 F3600 X-1.829 Y1.564
G1 F1500 X4.445 Y7.839 E67.02804
G1 X4.515 Y7.909
G0 F3600 X3.879 Y7.839
G1 F1500 X-2.109 Y1.85 E67.45056
G1 X-2.179 Y1.78
G0 F3600 X-2.392 Y2.133
G1 F1500 X3.314 Y7.839 E67.85315
G1 X3.384 Y7.909
G0 F3600 X2.748 Y7.839
G1 F1500 X-2.756 Y2.334 E68.24152
G1 X-2.826 Y2.264
G0 F3600 X-3.131 Y2.525
G1 F1500 X2.182 Y7.839 E68.61641
G1 X2.252 Y7.909
G0 F3600 X1.617 Y7.839
G1 F1500 X-3.608 Y2.614 E68.98507
G1 X-3.678 Y2.544
G0 F3600 X-4.134 Y2.653
G1 F1500 X1.051 Y7.839 E69.35093
G1 X1.121 Y7.909
G0 F3600 X0.485 Y7.839
G1 F1500 X-4.804 Y2.549 E69.72413
G1 X-4.874 Y2.479
G0 F3600 X-3.337 Y2.045
G0 X-2.737 Y1.74
G0 X-2.26 Y1.263
G0 X-1.484 Y0.00
;TIME_ELAPSED:59.232304
;LAYER:1
M140 S35
M106 S255
G0 F5400 X-1.484 Y0.00 Z0.4
;TYPE:WALL-INNER
G1 F2550 X-1.608 Y-.777 E69.73722
G1 X-1.964 Y-1.478 E69.75029
G1 X-2.522 Y-2.036 E69.76342
G1 X-3.223 Y-2.392 E69.77649
G1 X-4 Y-2.516 E69.78958
G1 X-4.777 Y-2.392 E69.80266
G1 X-5.478 Y-2.036 E69.81574
G1 X-6.036 Y-1.478 E69.82886
G1 X-6.392 Y-.776 E69.84195
G1 X-6.514 Y0.00 E69.85501
G1 X-6.392 Y0.776 E69.86808
G1 X-6.036 Y1.478 E69.88117
G1 X-5.478 Y2.036 E69.89429
G1 X-4.776 Y2.392 E69.90738
G1 X-4 Y2.514 E69.92044
G1 X-3.224 Y2.392 E69.93351
G1 X-2.522 Y2.036 E69.9466
G1 X-1.964 Y1.478 E69.95972
G1 X-1.608 Y0.777 E69.97279
