;FLAVOR:Marlin
;TIME:8730
;Filament used: 4.83785m
;Layer height: 0.1
;Generated with Cura_SteamEngine 1.2.0
M190 S35
M104 S220
M109 S220
G28
G1 Z50.00 F400
G92 E0
G1 F200 E3
G92 E0
M132 X Y Z A
M907 X100 Y100 Z50 A100
;LAYER_COUNT:143
;LAYER:0
M107
G0 F3600 X24.79 Y-8 Z0.3
;TYPE:SKIRT
G1 F1500 X24.789 Y8.011 E0.79879
G1 X24.75 Y8.621 E0.82929
G1 X24.581 Y9.941 E0.89568
G1 X24.017 Y15.695 E1.18412
G1 X23.875 Y18.335 E1.31602
G1 X23.8 Y22.154 E1.50659
G1 X23.79 Y31.996 E1.99761
G1 X23.749 Y32.614 E2.02851
G1 X23.63 Y33.222 E2.05942
G1 X23.433 Y33.809 E2.09031
G1 X23.161 Y34.366 E2.12124
G1 X22.821 Y34.883 E2.15211
G1 X22.417 Y35.352 E2.18299
G1 X21.955 Y35.765 E2.21391
G1 X21.445 Y36.116 E2.24479
G1 X20.893 Y36.398 E2.27572
G1 X20.31 Y36.606 E2.3066
G1 X19.705 Y36.737 E2.33748
G1 X18.99 Y36.791 E2.37326
G1 X-20.995 Y36.79 E4.36812
G1 X-21.613 Y36.75 E4.39901
G1 X-22.221 Y36.631 E4.42992
G1 X-22.808 Y36.434 E4.46081
G1 X-23.365 Y36.164 E4.49169
G1 X-24.066 Y35.679 E4.53422
G1 X-28.483 Y32.003 E4.82092
G1 X-32.812 Y28.804 E5.08946
G1 X-37.322 Y25.849 E5.35847
G1 X-41.98 Y23.163 E5.62672
G1 X-46.782 Y20.742 E5.89502
G1 X-51.719 Y18.594 E6.16363
G1 X-56.774 Y16.728 E6.43246
G1 X-61.924 Y15.151 E6.70117
G1 X-68.117 Y13.657 E7.019
G1 X-68.708 Y13.473 E7.04989
G1 X-69.271 Y13.215 E7.08078
G1 X-69.796 Y12.886 E7.11169
G1 X-70.274 Y12.493 E7.14257
G1 X-70.698 Y12.041 E7.17348
G1 X-71.059 Y11.538 E7.20437
G1 X-71.354 Y10.993 E7.23529
G1 X-71.575 Y10.415 E7.26616
G1 X-71.72 Y9.812 E7.2971
G1 X-71.791 Y8.991 E7.33822
G1 X-71.79 Y-6.991 E8.13556
G1 X-71.75 Y-7.609 E8.16646
G1 X-71.631 Y-8.217 E8.19737
G1 X-71.434 Y-8.804 E8.22826
G1 X-71.164 Y-9.362 E8.25919
G1 X-70.824 Y-9.879 E8.29006
G1 X-70.42 Y-10.349 E8.32098
G1 X-69.959 Y-10.763 E8.35189
G1 X-69.449 Y-11.114 E8.38278
G1 X-68.897 Y-11.396 E8.4137
G1 X-68.159 Y-11.647 E8.45259
G1 X-66.006 Y-12.188 E8.56335
G1 X-60.823 Y-13.701 E8.83272
G1 X-55.74 Y-15.503 E9.10177
G1 X-50.776 Y-17.587 E9.37037
G1 X-45.94 Y-19.945 E9.63879
G1 X-41.234 Y-22.581 E9.9079
G1 X-36.695 Y-25.469 E10.1763
G1 X-34.498 Y-27.003 E10.30998
G1 X-30.217 Y-30.271 E10.57868
G1 X-26.084 Y-33.811 E10.85017
G1 X-24.253 Y-35.51 E10.97479
G1 X-23.773 Y-35.901 E11.00568
G1 X-23.246 Y-36.227 E11.03659
G1 X-22.682 Y-36.483 E11.0675
G1 X-22.09 Y-36.663 E11.09837
G1 X-21.479 Y-36.766 E11.12928
G1 X-20.989 Y-36.791 E11.15376
G1 X18.991 Y-36.79 E13.14837
G1 X19.609 Y-36.75 E13.17926
G1 X20.217 Y-36.631 E13.21017
G1 X20.804 Y-36.434 E13.24106
G1 X21.361 Y-36.164 E13.27195
G1 X21.879 Y-35.824 E13.30286
G1 X22.349 Y-35.42 E13.33378
G1 X22.763 Y-34.959 E13.36469
G1 X23.113 Y-34.449 E13.39555
G1 X23.396 Y-33.897 E13.4265
G1 X23.605 Y-33.314 E13.4574
G1 X23.737 Y-32.709 E13.48829
G1 X23.791 Y-31.994 E13.52406
G1 X23.8 Y-22.103 E14.01753
G1 X23.954 Y-16.658 E14.28929
G1 X24.414 Y-11.244 E14.56037
G1 X24.751 Y-8.609 E14.6929
G1 X24.79 Y-8 E14.72334
G0 F3600 X24.39 Y-8
G1 F1500 X24.389 Y8.011 E15.52214
G1 X24.353 Y8.57 E15.55008
G1 X24.185 Y9.884 E15.61617
G1 X23.619 Y15.658 E15.90562
G1 X23.475 Y18.335 E16.03937
G1 X23.4 Y22.146 E16.22954
G1 X23.39 Y31.995 E16.7209
G1 X23.349 Y32.587 E16.75051
G1 X23.23 Y33.168 E16.7801
G1 X23.033 Y33.727 E16.80967
G1 X22.763 Y34.255 E16.83925
G1 X22.424 Y34.742 E16.86886
G1 X22.023 Y35.178 E16.89841
G1 X21.567 Y35.557 E16.92799
G1 X21.064 Y35.871 E16.95758
G1 X20.524 Y36.115 E16.98714
G1 X19.955 Y36.284 E17.01675
G1 X19.369 Y36.375 E17.04634
G1 X18.99 Y36.391 E17.06526
G1 X-20.995 Y36.39 E19.06012
G1 X-21.587 Y36.35 E19.08973
G1 X-22.168 Y36.231 E19.11931
G1 X-22.727 Y36.035 E19.14887
G1 X-23.255 Y35.765 E19.17845
G1 X-23.81 Y35.372 E19.21238
G1 X-28.237 Y31.687 E19.49975
G1 X-32.589 Y28.472 E19.76969
G1 X-37.117 Y25.505 E20.03977
G1 X-41.779 Y22.816 E20.30828
G1 X-46.621 Y20.375 E20.57881
G1 X-51.557 Y18.228 E20.84735
G1 X-56.661 Y16.344 E21.11878
G1 X-61.814 Y14.766 E21.38765
G1 X-68.023 Y13.268 E21.70631
G1 X-68.589 Y13.091 E21.7359
G1 X-69.125 Y12.839 E21.76544
G1 X-69.623 Y12.517 E21.79503
G1 X-70.073 Y12.131 E21.82461
G1 X-70.468 Y11.688 E21.85422
G1 X-70.799 Y11.196 E21.8838
G1 X-71.061 Y10.664 E21.91339
G1 X-71.249 Y10.102 E21.94296
G1 X-71.359 Y9.519 E21.97256
G1 X-71.391 Y8.991 E21.99895
G1 X-71.39 Y-6.991 E22.79629
G1 X-71.35 Y-7.583 E22.82589
G1 X-71.231 Y-8.164 E22.85548
G1 X-71.035 Y-8.723 E22.88503
G1 X-70.765 Y-9.251 E22.91462
G1 X-70.427 Y-9.738 E22.9442
G1 X-70.026 Y-10.176 E22.97382
G1 X-69.57 Y-10.555 E23.0034
G1 X-69.068 Y-10.87 E23.03297
G1 X-68.527 Y-11.114 E23.06258
G1 X-68.061 Y-11.259 E23.08693
G1 X-65.93 Y-11.794 E23.19654
G1 X-60.682 Y-13.327 E23.46931
G1 X-55.599 Y-15.129 E23.73837
G1 X-50.618 Y-17.219 E24.00786
G1 X-45.748 Y-19.595 E24.2782
G1 X-41.03 Y-22.237 E24.54797
G1 X-36.468 Y-25.14 E24.81775
G1 X-34.27 Y-26.674 E24.95147
G1 X-29.962 Y-29.963 E25.22187
G1 X-25.821 Y-33.511 E25.49393
G1 X-23.981 Y-35.217 E25.61911
G1 X-23.52 Y-35.59 E25.6487
G1 X-23.013 Y-35.898 E25.6783
G1 X-22.47 Y-36.134 E25.70783
G1 X-21.899 Y-36.296 E25.73745
G1 X-21.312 Y-36.379 E25.76702
G1 X-20.989 Y-36.391 E25.78315
G1 X18.991 Y-36.39 E27.77776
G1 X19.583 Y-36.35 E27.80736
G1 X20.164 Y-36.231 E27.83695
G1 X20.723 Y-36.035 E27.8665
G1 X21.251 Y-35.765 E27.89609
G1 X21.738 Y-35.427 E27.92566
G1 X22.175 Y-35.026 E27.95525
G1 X22.555 Y-34.571 E27.98483
G1 X22.869 Y-34.068 E28.01441
G1 X23.114 Y-33.528 E28.044
G1 X23.283 Y-32.959 E28.07361
G1 X23.374 Y-32.373 E28.10319
G1 X23.391 Y-31.994 E28.12212
G1 X23.4 Y-22.091 E28.61618
G1 X23.554 Y-16.632 E28.88864
G1 X24.016 Y-11.204 E29.16043
G1 X24.354 Y-8.558 E29.29351
G1 X24.39 Y-8 E29.32141
G0 F3600 X23.99 Y-8
G1 F1500 X23.989 Y8.011 E30.1202
G1 X23.957 Y8.519 E30.14559
G1 X23.785 Y9.86 E30.21304
G1 X23.219 Y15.643 E30.50294
G1 X23.076 Y18.306 E30.63599
G1 X23 Y22.112 E30.82591
G1 X22.99 Y31.995 E31.31897
G1 X22.949 Y32.559 E31.34718
G1 X22.83 Y33.111 E31.37536
G1 X22.634 Y33.642 E31.40359
G1 X22.364 Y34.139 E31.43181
G1 X22.028 Y34.593 E31.45999
G1 X21.631 Y34.995 E31.48818
G1 X21.181 Y35.338 E31.51641
G1 X20.687 Y35.613 E31.54461
G1 X20.16 Y35.816 E31.57279
G1 X19.609 Y35.943 E31.601
G1 X18.99 Y35.991 E31.63197
G1 X-20.995 Y35.99 E33.62683
G1 X-21.559 Y35.95 E33.65504
G1 X-22.112 Y35.831 E33.68326
G1 X-22.642 Y35.635 E33.71146
G1 X-23.139 Y35.367 E33.73963
G1 X-23.554 Y35.064 E33.76526
G1 X-27.989 Y31.373 E34.05313
G1 X-32.354 Y28.148 E34.32389
G1 X-36.902 Y25.167 E34.59519
G1 X-41.591 Y22.463 E34.86523
G1 X-46.453 Y20.012 E35.13688
G1 X-51.423 Y17.85 E35.40728
G1 X-56.51 Y15.972 E35.67781
G1 X-61.719 Y14.377 E35.9496
G1 X-67.929 Y12.879 E36.2683
G1 X-68.468 Y12.708 E36.29651
G1 X-68.977 Y12.463 E36.3247
G1 X-69.447 Y12.148 E36.35292
G1 X-69.867 Y11.771 E36.38108
G1 X-70.231 Y11.337 E36.40934
G1 X-70.529 Y10.857 E36.43753
G1 X-70.757 Y10.34 E36.46572
G1 X-70.909 Y9.795 E36.49395
G1 X-70.991 Y8.991 E36.53427
G1 X-70.99 Y-6.991 E37.33161
G1 X-70.95 Y-7.555 E37.35982
G1 X-70.831 Y-8.108 E37.38804
G1 X-70.635 Y-8.638 E37.41623
G1 X-70.366 Y-9.136 E37.44447
G1 X-70.03 Y-9.59 E37.47265
G1 X-69.634 Y-9.993 E37.50084
G1 X-69.184 Y-10.336 E37.52907
G1 X-68.691 Y-10.611 E37.55723
G1 X-67.964 Y-10.871 E37.59575
G1 X-65.816 Y-11.41 E37.70624
G1 X-60.567 Y-12.943 E37.97905
G1 X-55.448 Y-14.758 E38.25002
G1 X-50.452 Y-16.855 E38.52033
G1 X-45.563 Y-19.24 E38.79172
G1 X-40.841 Y-21.884 E39.06172
G1 X-36.23 Y-24.818 E39.33439
G1 X-34.046 Y-26.343 E39.46728
G1 X-29.702 Y-29.659 E39.73993
G1 X-25.559 Y-33.208 E40.01209
G1 X-23.709 Y-34.924 E40.13798
G1 X-23.269 Y-35.278 E40.16616
G1 X-22.782 Y-35.566 E40.19438
G1 X-22.26 Y-35.784 E40.22261
G1 X-21.713 Y-35.925 E40.25079
G1 X-20.989 Y-35.991 E40.28706
G1 X18.991 Y-35.99 E42.28167
G1 X19.555 Y-35.95 E42.30988
G1 X20.108 Y-35.831 E42.3381
G1 X20.638 Y-35.635 E42.36629
G1 X21.135 Y-35.367 E42.39446
G1 X21.59 Y-35.031 E42.42268
G1 X21.993 Y-34.634 E42.4509
G1 X22.336 Y-34.184 E42.47913
G1 X22.611 Y-33.691 E42.5073
G1 X22.815 Y-33.163 E42.53554
G1 X22.942 Y-32.613 E42.5637
G1 X22.991 Y-31.994 E42.59468
G1 X23 Y-22.08 E43.08929
G1 X23.154 Y-16.622 E43.3617
G1 X23.618 Y-11.166 E43.63488
G1 X23.958 Y-8.507 E43.76862
G1 X23.99 Y-8 E43.79396
G0 F3600 X23.59 Y-8
G1 F1500 X23.589 Y8.011 E44.59275
G1 X23.56 Y8.469 E44.61565
G1 X23.388 Y9.808 E44.683
G1 X22.821 Y15.606 E44.97365
G1 X22.676 Y18.305 E45.10849
G1 X22.6 Y22.112 E45.29846
G1 X22.59 Y31.995 E45.79153
G1 X22.55 Y32.529 E45.81824
G1 X22.43 Y33.052 E45.84501
G1 X22.234 Y33.551 E45.87176
G1 X21.966 Y34.016 E45.89854
G1 X21.633 Y34.436 E45.92528
G1 X21.24 Y34.801 E45.95204
G1 X20.798 Y35.104 E45.97877
G1 X20.315 Y35.338 E46.00555
G1 X19.803 Y35.498 E46.03231
G1 X19.273 Y35.58 E46.05907
G1 X18.99 Y35.591 E46.0732
G1 X-20.995 Y35.59 E48.06806
G1 X-21.53 Y35.55 E48.09482
G1 X-22.053 Y35.431 E48.12158
G1 X-22.552 Y35.236 E48.14831
G1 X-23.017 Y34.968 E48.17509
G1 X-23.298 Y34.757 E48.19262
G1 X-27.751 Y31.051 E48.48165
G1 X-32.123 Y27.821 E48.75284
G1 X-36.689 Y24.828 E49.02522
G1 X-41.399 Y22.112 E49.29647
G1 X-46.292 Y19.645 E49.56986
G1 X-51.261 Y17.484 E49.84019
G1 X-56.397 Y15.588 E50.11333
G1 X-61.594 Y13.997 E50.38449
G1 X-67.835 Y12.491 E50.70479
G1 X-68.346 Y12.326 E50.73158
G1 X-68.826 Y12.088 E50.75831
G1 X-69.266 Y11.781 E50.78507
G1 X-69.655 Y11.412 E50.81182
G1 X-69.985 Y10.99 E50.83855
G1 X-70.249 Y10.523 E50.86531
G1 X-70.44 Y10.022 E50.89206
G1 X-70.555 Y9.498 E50.91883
G1 X-70.591 Y8.991 E50.94419
G1 X-70.59 Y-6.991 E51.74153
G1 X-70.55 Y-7.526 E51.7683
G1 X-70.431 Y-8.049 E51.79506
G1 X-70.236 Y-8.548 E51.82179
G1 X-69.968 Y-9.013 E51.84856
G1 X-69.635 Y-9.433 E51.8753
G1 X-69.243 Y-9.799 E51.90206
G1 X-68.801 Y-10.103 E51.92882
G1 X-68.318 Y-10.337 E51.9556
G1 X-67.866 Y-10.483 E51.9793
G1 X-65.716 Y-11.023 E52.08989
G1 X-60.443 Y-12.563 E52.36395
G1 X-55.316 Y-14.38 E52.63533
G1 X-50.279 Y-16.495 E52.90788
G1 X-45.378 Y-18.885 E53.17992
G1 X-40.623 Y-21.548 E53.45181
G1 X-36.019 Y-24.478 E53.72408
G1 X-33.807 Y-26.022 E53.85866
G1 X-29.453 Y-29.346 E54.13195
G1 X-25.283 Y-32.918 E54.40588
G1 X-23.437 Y-34.63 E54.53149
G1 X-23.018 Y-34.965 E54.55825
G1 X-22.554 Y-35.233 E54.58498
G1 X-22.055 Y-35.43 E54.61175
G1 X-21.532 Y-35.55 E54.63852
G1 X-20.989 Y-35.591 E54.66569
G1 X18.991 Y-35.59 E56.6603
G1 X19.526 Y-35.55 E56.68706
G1 X20.049 Y-35.431 E56.71382
G1 X20.548 Y-35.236 E56.74055
G1 X21.013 Y-34.968 E56.76733
G1 X21.433 Y-34.635 E56.79407
G1 X21.799 Y-34.243 E56.82083
G1 X22.102 Y-33.801 E56.84756
G1 X22.337 Y-33.318 E56.87436
G1 X22.497 Y-32.807 E56.90107
G1 X22.58 Y-32.277 E56.92784
G1 X22.591 Y-31.993 E56.94202
G1 X22.6 Y-22.105 E57.43533
G1 X22.756 Y-16.577 E57.71123
G1 X23.219 Y-11.128 E57.98407
G1 X23.561 Y-8.456 E58.11846
G1 X23.59 Y-8 E58.14126
G0 F3600 X23.19 Y-8
G1 F1500 X23.189 Y8.011 E58.94005
G1 X23.163 Y8.418 E58.96039
G1 X22.992 Y9.751 E59.02744
G1 X22.421 Y15.587 E59.31999
G1 X22.276 Y18.277 E59.45439
G1 X22.2 Y22.111 E59.64571
G1 X22.19 Y31.994 E60.13877
G1 X22.15 Y32.498 E60.164
G1 X22.03 Y32.989 E60.18921
G1 X21.835 Y33.456 E60.21446
G1 X21.569 Y33.886 E60.23969
G1 X21.238 Y34.268 E60.26491
G1 X20.852 Y34.594 E60.29011
G1 X20.418 Y34.855 E60.31538
G1 X19.95 Y35.044 E60.34056
G1 X19.457 Y35.157 E60.36579
G1 X18.99 Y35.191 E60.38915
G1 X-20.995 Y35.19 E62.38401
G1 X-21.499 Y35.15 E62.40924
G1 X-21.99 Y35.031 E62.43444
G1 X-22.457 Y34.836 E62.45969
G1 X-23.042 Y34.45 E62.49466
G1 X-27.495 Y30.744 E62.78369
G1 X-31.9 Y27.489 E63.05695
G1 X-36.484 Y24.486 E63.33035
G1 X-41.224 Y21.751 E63.60337
G1 X-46.116 Y19.285 E63.87669
G1 X-51.105 Y17.115 E64.14812
G1 X-56.262 Y15.211 E64.42238
G1 X-61.499 Y13.608 E64.69562
G1 X-67.741 Y12.102 E65.01597
G1 X-68.222 Y11.945 E65.04121
G1 X-68.672 Y11.714 E65.06645
G1 X-69.08 Y11.415 E65.09168
G1 X-69.435 Y11.056 E65.11687
G1 X-69.73 Y10.645 E65.14211
G1 X-69.957 Y10.193 E65.16734
G1 X-70.109 Y9.711 E65.19256
G1 X-70.191 Y8.991 E65.22871
G1 X-70.19 Y-6.991 E66.02606
G1 X-70.15 Y-7.495 E66.05128
G1 X-70.031 Y-7.987 E66.07653
G1 X-69.836 Y-8.453 E66.10174
G1 X-69.571 Y-8.883 E66.12694
G1 X-69.24 Y-9.266 E66.15219
G1 X-68.854 Y-9.592 E66.1774
G1 X-68.421 Y-9.853 E66.20262
G1 X-67.769 Y-10.095 E66.23732
G1 X-65.61 Y-10.637 E66.34837
G1 X-60.318 Y-12.183 E66.62343
G1 X-55.17 Y-14.008 E66.89592
G1 X-50.113 Y-16.13 E67.16953
G1 X-45.193 Y-18.53 E67.44264
G1 X-40.426 Y-21.199 E67.7152
G1 X-35.791 Y-24.149 E67.98931
G1 X-33.579 Y-25.694 E68.12392
G1 X-29.196 Y-29.04 E68.39902
G1 X-25.021 Y-32.615 E68.67324
G1 X-23.165 Y-34.337 E68.79956
G1 X-22.769 Y-34.651 E68.82477
G1 X-22.327 Y-34.898 E68.85003
G1 X-21.853 Y-35.072 E68.87522
G1 X-21.357 Y-35.17 E68.90045
G1 X-20.989 Y-35.191 E68.91884
G1 X18.991 Y-35.19 E70.91345
G1 X19.495 Y-35.15 E70.93867
G1 X19.986 Y-35.031 E70.96387
G1 X20.453 Y-34.836 E70.98912
G1 X20.883 Y-34.571 E71.01432
G1 X21.266 Y-34.24 E71.03958
G1 X21.592 Y-33.854 E71.06478
G1 X21.853 Y-33.421 E71.09001
G1 X22.043 Y-32.953 E71.11521
G1 X22.156 Y-32.46 E71.14044
G1 X22.191 Y-31.993 E71.1638
G1 X22.2 Y-22.093 E71.65772
G1 X22.356 Y-16.566 E71.93357
G1 X22.824 Y-11.07 E72.20876
G1 X23.164 Y-8.406 E72.34275
G1 X23.19 Y-8 E72.36304
G1 F1500 E70.36304
G0 F3600 X20.665 Y-7.386
G0 X19.386 Y-7.386
G0 X19 Y-7
;TYPE:WALL-INNER
G1 F1500 E72.44619
G1 X19 Y7 E73.14466
G1 X-19 Y7 E75.04048
G1 X-19 Y-7 E75.73895
G1 X19 Y-7 E77.63477
G0 F3600 X14.978 Y-2.036
G1 F1500 X14.276 Y-2.392 E77.67404
G1 X13.5 Y-2.514 E77.71323
G1 X12.724 Y-2.392 E77.75242
G1 X12.022 Y-2.036 E77.79169
G1 X11.464 Y-1.478 E77.83106
G1 X11.108 Y-.776 E77.87033
G1 X10.986 Y0.00 E77.90952
G1 X11.108 Y0.776 E77.94871
G1 X11.464 Y1.478 E77.98798
G1 X12.022 Y2.036 E78.02735
G1 X12.723 Y2.392 E78.06658
G1 X13.5 Y2.516 E78.10583
G1 X14.277 Y2.392 E78.14509
G1 X14.978 Y2.036 E78.18431
G1 X15.536 Y1.478 E78.22368
G1 X15.892 Y0.777 E78.2629
G1 X16.016 Y0.00 E78.30216
G1 X15.892 Y-.777 E78.34142
G1 X15.536 Y-1.478 E78.38064
G1 X14.978 Y-2.036 E78.42001
G0 F3600 X13.5 Y-2.149
G0 X-10.986 Y0.00
G1 F1500 X-11.108 Y-.776 E78.4592
G1 X-11.464 Y-1.478 E78.49847
G1 X-12.022 Y-2.036 E78.53784
G1 X-12.724 Y-2.392 E78.57711
G1 X-13.5 Y-2.514 E78.6163
G1 X-14.276 Y-2.392 E78.65549
G1 X-14.978 Y-2.036 E78.69476
G1 X-15.536 Y-1.478 E78.73413
G1 X-15.892 Y-.777 E78.77335
G1 X-16.016 Y0.00 E78.81261
G1 X-15.892 Y0.777 E78.85186
G1 X-15.536 Y1.478 E78.89109
G1 X-14.978 Y2.036 E78.93046
G1 X-14.277 Y2.392 E78.96968
G1 X-13.5 Y2.516 E79.00894
G1 X-12.723 Y2.392 E79.04819
G1 X-12.022 Y2.036 E79.08742
G1 X-11.464 Y1.478 E79.12679
G1 X-11.108 Y0.776 E79.16606
G1 X-10.986 Y0.00 E79.20525
G0 F3600 X-11.391 Y0.00
G1 F1500 X-11.493 Y-.651 E79.23812
G1 X-11.792 Y-1.24 E79.27108
G1 X-12.26 Y-1.708 E79.30409
G1 X-12.849 Y-2.007 E79.33705
G1 X-13.5 Y-2.109 E79.36992
G1 X-14.151 Y-2.007 E79.4028
G1 X-14.74 Y-1.708 E79.43575
G1 X-15.208 Y-1.24 E79.46877
G1 X-15.507 Y-.652 E79.50168
G1 X-15.611 Y0.00 E79.53462
G1 X-15.507 Y0.652 E79.56756
G1 X-15.208 Y1.24 E79.60047
G1 X-14.74 Y1.708 E79.63349
G1 X-14.152 Y2.007 E79.6664
G1 X-13.5 Y2.111 E79.69934
G1 X-12.848 Y2.007 E79.73228
G1 X-12.26 Y1.708 E79.76519
G1 X-11.792 Y1.24 E79.79821
G1 X-11.493 Y0.651 E79.83117
G1 X-11.391 Y0.00 E79.86404
G0 F3600 X-11.291 Y0.00
G0 X-11.455 Y0.663
G0 X-11.76 Y1.263
G0 X-12.237 Y1.74
G0 X-19.33 Y7.33
G0 X-19.4 Y7.4
G1 F1500 X-19.4 Y-7.4 E80.60242
G1 X19.4 Y-7.4 E82.53816
G1 X19.4 Y7.4 E83.27653
G1 X-19.4 Y7.4 E85.21227
G0 F3600 X-19.33 Y7.33
G0 X11.398 Y0.681
G0 X11.493 Y0.651
G1 F1500 X11.792 Y1.24 E85.24523
G1 X12.26 Y1.708 E85.27825
G1 X12.848 Y2.007 E85.31116
G1 X13.5 Y2.111 E85.3441
G1 X14.152 Y2.007 E85.37704
G1 X14.74 Y1.708 E85.40995
G1 X15.208 Y1.24 E85.44297
G1 X15.507 Y0.652 E85.47588
G1 X15.611 Y0.00 E85.50882
G1 X15.507 Y-.652 E85.54176
G1 X15.208 Y-1.24 E85.57467
G1 X14.74 Y-1.708 E85.60769
G1 X14.151 Y-2.007 E85.64064
G1 X13.5 Y-2.109 E85.67352
G1 X12.849 Y-2.007 E85.70639
G1 X12.26 Y-1.708 E85.73935
G1 X11.792 Y-1.24 E85.77237
G1 X11.493 Y-.651 E85.80532
G1 X11.391 Y0.00 E85.8382
G1 X11.493 Y0.651 E85.87107
G0 F3600 X11.878 Y0.526
;TYPE:WALL-OUTER
G1 F1500 X12.12 Y1.002 E85.89771
G1 X12.498 Y1.38 E85.92438
G1 X12.973 Y1.622 E85.95098
